X: 5
T: Enchanged Island
%C: Mr. Gray
%R: jig
B: Mr. Gray "24 Country Dances for the Year 1805" p.3 #1
S: http://folkopedia.efdss.org/images/9/92/ThompsGray_24_1805.PDF  2013-12-2
Z: 2013 John Chambers <jc:trillian.mit.edu>
M: 6/8
L: 1/8
K: D
|:\
dfa afd | fdB (B2d) | AFA A2(d/e/) | (fe).e e2(f/e/) |\
dfa afd | fdB (B2d) | ded dag | fdd d3 :|
|:\
a>ba af^d | eEE E2(e/f/) | g>ag gec | dDD D2A |\
Bcd efg | cde fga | gbe fad | edc d3 :|
% - - - - - - - - - - - - - - - - - - - - - - - - -
%%begintext align
%% Lead twice down the mid: up again,
%% Allemande, foot it & swing Corners.
%%endtext
